icons/circle/48/phpstorm.svg

<svg xmlns="http://www.w3.org/2000/svg" viewBox="0 0 48 48">
  <defs>
    <linearGradient y2="46" y1="2" x2="24" x1="24" gradientUnits="userSpaceOnUse" id="linearGradient4172">
      <stop offset="0" style="stop-color:#e370a3;stop-opacity:1" />
      <stop offset="1" style="stop-color:#ae6ee2;stop-opacity:1" />
    </linearGradient>
  </defs>
  <g>
    <path d="m 36.31 5 c 5.859 4.062 9.688 10.831 9.688 18.5 c 0 12.426 -10.07 22.5 -22.5 22.5 c -7.669 0 -14.438 -3.828 -18.5 -9.688 c 1.037 1.822 2.306 3.499 3.781 4.969 c 4.085 3.712 9.514 5.969 15.469 5.969 c 12.703 0 23 -10.298 23 -23 c 0 -5.954 -2.256 -11.384 -5.969 -15.469 c -1.469 -1.475 -3.147 -2.744 -4.969 -3.781 z m 4.969 3.781 c 3.854 4.113 6.219 9.637 6.219 15.719 c 0 12.703 -10.297 23 -23 23 c -6.081 0 -11.606 -2.364 -15.719 -6.219 c 4.16 4.144 9.883 6.719 16.219 6.719 c 12.703 0 23 -10.298 23 -23 c 0 -6.335 -2.575 -12.06 -6.719 -16.219 z" style="opacity:0.05" />
    <path d="m 41.28 8.781 c 3.712 4.085 5.969 9.514 5.969 15.469 c 0 12.703 -10.297 23 -23 23 c -5.954 0 -11.384 -2.256 -15.469 -5.969 c 4.113 3.854 9.637 6.219 15.719 6.219 c 12.703 0 23 -10.298 23 -23 c 0 -6.081 -2.364 -11.606 -6.219 -15.719 z" style="opacity:0.1" />
    <path d="m 31.25 2.375 c 8.615 3.154 14.75 11.417 14.75 21.13 c 0 12.426 -10.07 22.5 -22.5 22.5 c -9.708 0 -17.971 -6.135 -21.12 -14.75 a 23 23 0 0 0 44.875 -7 a 23 23 0 0 0 -16 -21.875 z" style="opacity:0.2" />
  </g>
  <path d="M 47,24 A 23,23 0 0 1 24,47 23,23 0 0 1 1,24 23,23 0 0 1 24,0.9999996 23,23 0 0 1 47,24 Z" style="opacity:1;fill:url(#linearGradient4172);fill-opacity:1" />
  <g>
    <path d="m 40.03 7.531 c 3.712 4.084 5.969 9.514 5.969 15.469 0 12.703 -10.297 23 -23 23 c -5.954 0 -11.384 -2.256 -15.469 -5.969 4.178 4.291 10.01 6.969 16.469 6.969 c 12.703 0 23 -10.298 23 -23 0 -6.462 -2.677 -12.291 -6.969 -16.469 z" style="opacity:0.1" />
  </g>
  <g>
    <path d="m 12,11.999999 26,0 L 38,38 12,38 Z" style="fill:#000000;fill-opacity:0.1" />
    <path d="m 11,11 26,0 0,26 -26,0 z" style="fill:#303030;fill-opacity:1" />
    <path style="opacity:1;fill:#f9f9f9;fill-opacity:1;" d="m 13,32 10,0 0,2 -10,0 z" />
    <path d="M 15 13.998047 L 15 24.998047 L 17 24.998047 L 17 20.998047 L 19 20.998047 C 21.407407 20.998047 23 20.016421 23 17.548828 L 23 17.498047 C 23 15.271195 21.914135 13.998047 19.326172 13.998047 L 15 13.998047 z M 29.025391 14 C 26.858724 14 24.978516 15.088108 24.978516 17.074219 L 24.978516 17.134766 C 24.978516 18.52841 26.376303 19.766928 28.542969 20.308594 C 30.348525 20.790076 31.025391 21.226273 31.025391 21.828125 L 31.025391 21.888672 C 31.025391 22.550709 29.988354 23 29.025391 23 C 27.821687 23 26.988354 22.549986 26.025391 21.767578 L 24.71875 23.183594 C 25.982639 24.327112 27.400391 24.93981 29.025391 25 C 31.312428 25 32.982422 23.570037 32.982422 21.708984 L 32.982422 21.648438 C 32.982422 20.000348 31.692058 19.31279 29.525391 18.710938 C 27.719836 18.229456 27.025391 17.892144 27.025391 17.169922 L 27.025391 16.982422 C 27.025391 16.440756 28.122613 16 29.025391 16 C 29.928169 16 30.605396 16.064525 31.568359 16.726562 L 32.681641 15.208984 C 31.544376 14.521934 30.590206 14 29.025391 14 z M 17 15.998047 L 19 15.998047 C 20.203704 15.998047 21 16.414714 21 17.498047 L 21 17.548828 C 21 18.451606 20.203704 18.998047 19 18.998047 L 17 18.998047 L 17 15.998047 z " style="fill:#f9f9f9;fill-opacity:1" />
  </g>
</svg>

<svg xmlns="http://www.w3.org/2000/svg" viewBox="0 0 48 48">
  <defs>
    <linearGradient y2="46" y1="2" x2="24" x1="24" gradientUnits="userSpaceOnUse" id="a">
      <stop offset="0" stop-color="#e370a3"/>
      <stop offset="1" stop-color="#ae6ee2"/>
    </linearGradient>
  </defs>
  <path d="M36.31 5c5.859 4.062 9.688 10.831 9.688 18.5 0 12.426-10.07 22.5-22.5 22.5-7.669 0-14.438-3.828-18.5-9.688a23.24 23.24 0 0 0 3.781 4.969 22.923 22.923 0 0 0 15.469 5.969c12.703 0 23-10.298 23-23a22.92 22.92 0 0 0-5.969-15.469A23.216 23.216 0 0 0 36.31 5zm4.969 3.781A22.911 22.911 0 0 1 47.498 24.5c0 12.703-10.297 23-23 23a22.909 22.909 0 0 1-15.719-6.219C12.939 45.425 18.662 48 24.998 48c12.703 0 23-10.298 23-23 0-6.335-2.575-12.06-6.719-16.219z" opacity=".05"/>
  <path d="M41.28 8.781a22.923 22.923 0 0 1 5.969 15.469c0 12.703-10.297 23-23 23A22.92 22.92 0 0 1 8.78 41.281 22.911 22.911 0 0 0 24.499 47.5c12.703 0 23-10.298 23-23A22.909 22.909 0 0 0 41.28 8.781z" opacity=".1"/>
  <path d="M31.25 2.375C39.865 5.529 46 13.792 46 23.505c0 12.426-10.07 22.5-22.5 22.5-9.708 0-17.971-6.135-21.12-14.75a23 23 0 0 0 44.875-7 23 23 0 0 0-16-21.875z" opacity=".2"/>
  <path d="M47 24a23 23 0 0 1-23 23A23 23 0 0 1 1 24 23 23 0 0 1 24 1a23 23 0 0 1 23 23z" fill="url(#a)"/>
  <g>
    <path d="M40.03 7.531A22.922 22.922 0 0 1 45.999 23c0 12.703-10.297 23-23 23A22.92 22.92 0 0 1 7.53 40.031C11.708 44.322 17.54 47 23.999 47c12.703 0 23-10.298 23-23 0-6.462-2.677-12.291-6.969-16.469z" opacity=".1"/>
  </g>
  <g>
    <path d="M12 12h26v26H12z" fill-opacity=".1"/>
    <path d="M11 11h26v26H11z" fill="#303030"/>
    <path d="M13 32h10v2H13zM15 13.998v11h2v-4h2c2.407 0 4-.982 4-3.45v-.05c0-2.227-1.086-3.5-3.674-3.5H15zM29.025 14c-2.166 0-4.046 1.088-4.046 3.074v.06c0 1.394 1.397 2.633 3.564 3.175 1.806.481 2.482.917 2.482 1.52v.06c0 .662-1.037 1.111-2 1.111-1.203 0-2.037-.45-3-1.232l-1.306 1.416C25.983 24.327 27.4 24.94 29.025 25c2.287 0 3.957-1.43 3.957-3.291v-.06c0-1.649-1.29-2.336-3.457-2.938-1.805-.482-2.5-.819-2.5-1.541v-.188c0-.541 1.098-.982 2-.982.903 0 1.58.065 2.543.727l1.114-1.518C31.544 14.522 30.59 14 29.025 14zM17 15.998h2c1.204 0 2 .417 2 1.5v.05c0 .904-.796 1.45-2 1.45h-2v-3z" fill="#f9f9f9"/>
  </g>
</svg>
